X: 313
T: THE REJECTED LOVER
T: An gradhuigtheoir treigthe
B: O'Neill's 313
M: 3/4
L: 1/8
Z: 1999 by John Chambers <jc@trillian.mit.edu>
N: "Very slow and plaintive"
N: "Collected by F.O'Neill"
K:G
F | (GB) (A3 F) | (Ge) (d3 c) | (BG) (A3 F) | GG G2 z Hx||
d | .d.d d3 e | .e.e ">"e3 d | dg ">"g3 d | (de/f/) g2 "D.C."z ||


